resources/svg/battery-low-fill.svg

<svg fill="currentColor" viewBox="0 0 24 24" xmlns="http://www.w3.org/2000/svg"><path d="M3 5H19C19.5523 5 20 5.44772 20 6V18C20 18.5523 19.5523 19 19 19H3C2.44772 19 2 18.5523 2 18V6C2 5.44772 2.44772 5 3 5ZM5 8V16H9V8H5ZM21 9H23V15H21V9Z"/></svg>

<svg xmlns="http://www.w3.org/2000/svg" viewBox="0 0 24 24" fill="currentColor">
    <g>
        <path fill="none" d="M0 0h24v24H0z"/>
        <path d="M3 5h16a1 1 0 0 1 1 1v12a1 1 0 0 1-1 1H3a1 1 0 0 1-1-1V6a1 1 0 0 1 1-1zm2 3v8h4V8H5zm16 1h2v6h-2V9z"/>
    </g>
</svg>
